public/QUIZMania.svg

<svg width="144" height="23" viewBox="0 0 144 23" fill="none" xmlns="http://www.w3.org/2000/svg">
<path d="M20.6827 11.7702C20.6827 14.8329 19.6323 17.4352 17.5316 19.577L19.8806 22.0091L18.8493 23L16.443 20.5379C14.6288 21.9191 12.5949 22.6097 10.3413 22.6097C7.47671 22.6097 5.03222 21.5587 3.00787 19.4569C1.00262 17.3351 0 14.7728 0 11.7702C0 8.76762 1.00262 6.21541 3.00787 4.11358C5.03222 1.99173 7.47671 0.93081 10.3413 0.93081C13.206 0.93081 15.6409 1.99173 17.6462 4.11358C19.6705 6.21541 20.6827 8.76762 20.6827 11.7702ZM10.3413 21.0783C12.1938 21.0783 13.8744 20.5278 15.3831 19.4269L10.9429 14.8329L11.9742 13.842L16.4717 18.4961C18.2668 16.6545 19.1644 14.4125 19.1644 11.7702C19.1644 9.18799 18.305 6.99608 16.5863 5.19452C14.8675 3.37293 12.7858 2.46214 10.3413 2.46214C7.89685 2.46214 5.81522 3.37293 4.09643 5.19452C2.37765 6.99608 1.51826 9.18799 1.51826 11.7702C1.51826 14.3525 2.37765 16.5544 4.09643 18.376C5.81522 20.1775 7.89685 21.0783 10.3413 21.0783Z" fill="#B92B5D"/>
<path d="M36.9082 20.5979C35.5714 21.9391 33.7953 22.6097 31.58 22.6097C29.3646 22.6097 27.5886 21.9391 26.2517 20.5979C24.9149 19.2567 24.2465 17.4752 24.2465 15.2533V1.2611H25.7647V15.2533C25.7647 17.0148 26.2708 18.426 27.283 19.4869C28.2952 20.5479 29.7275 21.0783 31.58 21.0783C33.4324 21.0783 34.8647 20.5479 35.8769 19.4869C36.9082 18.426 37.4238 17.0148 37.4238 15.2533V1.2611H38.9421V15.2533C38.9421 17.4752 38.2641 19.2567 36.9082 20.5979Z" fill="#B92B5D"/>
<path d="M43.6399 1.2611H45.1581V22.2794H43.6399V1.2611Z" fill="#B92B5D"/>
<path d="M50.5597 20.7781H61.6745V22.2794H48.8696V20.7781L59.6979 2.7624H49.1561V1.2611H61.3881V2.7624L50.5597 20.7781Z" fill="#B92B5D"/>
<path d="M84.9766 1.2611V22.2794H79.2473V12.0405L74.7785 19.9073H74.2628L69.794 12.0405V22.2794H64.0647V1.2611H69.794L74.5207 9.81854L79.2473 1.2611H84.9766Z" fill="#B92B5D"/>
<path d="M97.3254 7.26632H102.625V22.2794H97.3254V20.9282C96.4087 22.1092 95.1292 22.6997 93.4868 22.6997C91.558 22.6997 89.9824 21.9491 88.7601 20.4478C87.5379 18.9465 86.9268 17.0548 86.9268 14.7728C86.9268 12.4909 87.5379 10.5992 88.7601 9.09791C89.9824 7.59661 91.558 6.84595 93.4868 6.84595C95.1292 6.84595 96.4087 7.43647 97.3254 8.61749V7.26632ZM92.9139 16.7846C93.3913 17.3251 94.012 17.5953 94.7759 17.5953C95.5398 17.5953 96.1509 17.3251 96.6093 16.7846C97.0867 16.2441 97.3254 15.5735 97.3254 14.7728C97.3254 13.9721 97.0867 13.3016 96.6093 12.7611C96.1509 12.2206 95.5398 11.9504 94.7759 11.9504C94.012 11.9504 93.3913 12.2206 92.9139 12.7611C92.4555 13.3016 92.2264 13.9721 92.2264 14.7728C92.2264 15.5735 92.4555 16.2441 92.9139 16.7846Z" fill="#B92B5D"/>
<path d="M114.068 6.84595C115.634 6.84595 116.885 7.41645 117.82 8.55744C118.775 9.67842 119.253 11.3599 119.253 13.6018V22.2794H113.953V14.2023C113.953 12.8612 113.361 12.1906 112.177 12.1906C111.547 12.1906 111.06 12.4008 110.716 12.8211C110.391 13.2415 110.229 13.822 110.229 14.5627V22.2794H104.929V7.26632H110.229V8.7376C111.108 7.4765 112.387 6.84595 114.068 6.84595Z" fill="#B92B5D"/>
<path d="M124.071 6.12533C123.269 6.12533 122.572 5.82507 121.98 5.22454C121.407 4.604 121.12 3.88338 121.12 3.06266C121.12 2.24195 121.407 1.53133 121.98 0.93081C122.572 0.31027 123.269 0 124.071 0C124.854 0 125.532 0.31027 126.105 0.93081C126.697 1.53133 126.993 2.24195 126.993 3.06266C126.993 3.88338 126.697 4.604 126.105 5.22454C125.532 5.82507 124.854 6.12533 124.071 6.12533ZM121.407 22.2794V7.26632H126.706V22.2794H121.407Z" fill="#B92B5D"/>
<path d="M138.7 7.26632H144V22.2794H138.7V20.9282C137.784 22.1092 136.504 22.6997 134.862 22.6997C132.933 22.6997 131.357 21.9491 130.135 20.4478C128.913 18.9465 128.302 17.0548 128.302 14.7728C128.302 12.4909 128.913 10.5992 130.135 9.09791C131.357 7.59661 132.933 6.84595 134.862 6.84595C136.504 6.84595 137.784 7.43647 138.7 8.61749V7.26632ZM134.289 16.7846C134.766 17.3251 135.387 17.5953 136.151 17.5953C136.915 17.5953 137.526 17.3251 137.984 16.7846C138.462 16.2441 138.7 15.5735 138.7 14.7728C138.7 13.9721 138.462 13.3016 137.984 12.7611C137.526 12.2206 136.915 11.9504 136.151 11.9504C135.387 11.9504 134.766 12.2206 134.289 12.7611C133.831 13.3016 133.601 13.9721 133.601 14.7728C133.601 15.5735 133.831 16.2441 134.289 16.7846Z" fill="#B92B5D"/>
</svg>

<svg xmlns="http://www.w3.org/2000/svg" width="144" height="23" fill="none"><path fill="#B92B5D" d="M20.683 11.77q0 4.594-3.151 7.807l2.349 2.432-1.032.991-2.406-2.462q-2.721 2.072-6.102 2.072-4.296 0-7.333-3.153Q0 16.274 0 11.77t3.008-7.656Q6.044.93 10.34.93t7.305 3.183q3.037 3.152 3.037 7.656M10.34 21.078q2.779 0 5.042-1.651l-4.44-4.594 1.031-.991 4.498 4.654q2.692-2.762 2.692-6.726 0-3.873-2.578-6.575-2.577-2.733-6.245-2.733-3.666 0-6.245 2.733Q1.52 7.897 1.518 11.77t2.578 6.606q2.579 2.702 6.245 2.702M36.908 20.598q-2.006 2.012-5.328 2.012t-5.328-2.012q-2.005-2.012-2.005-5.345V1.261h1.518v13.992q0 2.643 1.518 4.234 1.518 1.59 4.297 1.591t4.297-1.591q1.547-1.591 1.547-4.234V1.261h1.518v13.992q0 3.333-2.034 5.345M43.64 1.261h1.518V22.28H43.64zM50.56 20.778h11.115v1.501H48.87v-1.5L59.698 2.761H49.156v-1.5h12.232v1.5zM84.977 1.261V22.28h-5.73V12.041l-4.469 7.866h-.515l-4.469-7.866v10.238h-5.73V1.261h5.73l4.727 8.558 4.726-8.558zM97.325 7.266h5.3V22.28h-5.3v-1.35q-1.375 1.77-3.838 1.77-2.894 0-4.727-2.251t-1.833-5.675 1.833-5.675 4.727-2.252q2.463 0 3.838 1.771zm-4.411 9.519q.716.81 1.862.81t1.833-.81q.716-.811.716-2.012 0-1.2-.716-2.012-.688-.81-1.833-.81t-1.862.81q-.688.81-.688 2.012 0 1.2.688 2.012M114.068 6.846q2.35 0 3.752 1.711 1.433 1.682 1.433 5.045v8.677h-5.3v-8.077q0-2.01-1.776-2.011-.945 0-1.461.63-.487.63-.487 1.742v7.716h-5.3V7.266h5.3v1.472q1.318-1.892 3.839-1.892M124.071 6.125q-1.203 0-2.091-.9-.86-.932-.86-2.162 0-1.232.86-2.132.888-.93 2.091-.931 1.174 0 2.034.93.888.901.888 2.133 0 1.23-.888 2.162-.86.9-2.034.9m-2.664 16.154V7.266h5.299V22.28zM138.7 7.266h5.3V22.28h-5.3v-1.35q-1.375 1.77-3.838 1.77-2.894 0-4.727-2.251t-1.833-5.675 1.833-5.675 4.727-2.252q2.463 0 3.838 1.771zm-4.411 9.519q.716.81 1.862.81t1.833-.81q.716-.811.716-2.012 0-1.2-.716-2.012-.687-.81-1.833-.81t-1.862.81q-.687.81-.688 2.012 0 1.2.688 2.012"/></svg>
